X:35
T:Cincinnati Hornpipe
M:2/4
L:1/16
Z:abc by Bruce Osborne - bosborne@kos.net
K:D
DAFA DAFA|dAfA eAfA|gAfA edcd|edcB AGFE|!
DAFA DAFA|dAfA eAfA|gAfA edcB|Aceg fed2:|!
|:eAAA fAAA|gAAA fAAA|eAfA gAfA|edcB AGFE|!
Dddd ceee|dfff eggg|fgaf bgec|d2dd d4:|!
